res/skins/Tango/buttons/btn_beats_later.svg

<!-- Created with Inkscape (http://www.inkscape.org/) -->
<svg id="svg3935" width="24" height="24" version="1.1" xmlns="http://www.w3.org/2000/svg"><path id="path4757" d="m17 21h-2v-9h2z" fill="#888"/><path id="path4753" d="m9 21h2v-12h-2z" fill="#888"/><path id="path4-1" d="m15 3v3l-11 1e-6v2l11-1e-6v3l7-4z" fill="#aaa"/><path id="path4753-2" d="m9 5h2v-2h-2z" fill="#888"/><path id="path4753-7" d="m3 21h2v-12h-2z" fill="#888"/><path id="path4753-2-0" d="m3 5h2v-2h-2z" fill="#888"/></svg>

<?xml version="1.0" encoding="UTF-8" standalone="no"?>
<!-- Created with Inkscape (http://www.inkscape.org/) -->

<svg
   xmlns:dc="http://purl.org/dc/elements/1.1/"
   xmlns:cc="http://creativecommons.org/ns#"
   xmlns:rdf="http://www.w3.org/1999/02/22-rdf-syntax-ns#"
   xmlns:svg="http://www.w3.org/2000/svg"
   xmlns="http://www.w3.org/2000/svg"
   version="1.1"
   width="24"
   height="24"
   id="svg3935">
  <metadata
     id="metadata3947">
    <rdf:RDF>
      <cc:Work
         rdf:about="">
        <dc:format>image/svg+xml</dc:format>
        <dc:type
           rdf:resource="http://purl.org/dc/dcmitype/StillImage" />
        <dc:title></dc:title>
      </cc:Work>
    </rdf:RDF>
  </metadata>
  <defs
     id="defs3945" />
  <path
     d="m 17,21 -2,0 0,-9 2,0 z"
     id="path4757"
     style="fill:#888888;fill-opacity:1" />
  <path
     d="m 9,21 h 2 L 11,9 9,9 z"
     id="path4753"
     style="fill:#888888;fill-opacity:1" />
  <path
     d="m 14.999999,3 0,3 L 4,6.000001 4,8 l 10.999999,-1e-6 0,3.000001 L 22,7 z"
     id="path4-1"
     style="fill:#aaaaaa;fill-opacity:1" />
  <path
     d="m 9,5 h 2 L 11,3 9,3 z"
     id="path4753-2"
     style="fill:#888888;fill-opacity:1" />
  <path
     d="M 3,21 H 5 L 5,9 3,9 z"
     id="path4753-7"
     style="fill:#888888;fill-opacity:1" />
  <path
     d="M 3,5 H 5 L 5,3 3,3 z"
     id="path4753-2-0"
     style="fill:#888888;fill-opacity:1" />
</svg>
